icons/Bicycle_2.svg

<svg width="24" height="24" viewBox="0 0 24 24" fill="none" xmlns="http://www.w3.org/2000/svg">
<path fill-rule="evenodd" clip-rule="evenodd" d="M10.75,4.75c0,-0.41421 0.3358,-0.75 0.75,-0.75h2.5c0.3112,0 0.5901,0.19219 0.7009,0.483l2.3299,6.116c0.3129,-0.0649 0.6371,-0.099 0.9692,-0.099c2.6234,0 4.75,2.1266 4.75,4.75c0,2.6234 -2.1266,4.75 -4.75,4.75c-2.6234,0 -4.75,-2.1266 -4.75,-4.75c0,-1.7599 0.9571,-3.2962 2.3791,-4.1169l-0.6037,-1.58477l-4.1549,6.12277l-0.167,0.2462c-0.3244,2.3074 -2.30663,4.0827 -4.7035,4.0827c-2.62335,0 -4.75,-2.1266 -4.75,-4.75c0,-2.6234 2.12665,-4.75 4.75,-4.75c2.04592,0 3.78973,1.2935 4.4583,3.1073l0.8406,-1.2388l-4.59836,-4.3685h-1.20054c-0.41421,0 -0.75,-0.33579 -0.75,-0.75c0,-0.41421 0.33579,-0.75 0.75,-0.75h1.5h2c0.41421,0 0.75,0.33579 0.75,0.75c0,0.41421 -0.33579,0.75 -0.75,0.75h-0.12161l3.27421,3.1105l2.221,-3.27307l-0.8905,-2.33743h-1.9831c-0.4142,0 -0.75,-0.33579 -0.75,-0.75zM9.16303,14.5c-0.33858,-1.4334 -1.62624,-2.5 -3.16303,-2.5c-1.79493,0 -3.25,1.4551 -3.25,3.25c0,1.7949 1.45507,3.25 3.25,3.25c1.53679,0 2.82445,-1.0666 3.16303,-2.5h-3.16303c-0.41421,0 -0.75,-0.3358 -0.75,-0.75c0,-0.4142 0.33579,-0.75 0.75,-0.75zM17.2991,15.517l-1.1258,-2.9554c-0.8591,0.5849 -1.4233,1.5707 -1.4233,2.6884c0,1.7949 1.4551,3.25 3.25,3.25c1.7949,0 3.25,-1.4551 3.25,-3.25c0,-1.7949 -1.4551,-3.25 -3.25,-3.25c-0.1441,0 -0.2859,0.0094 -0.425,0.0275l1.1259,2.9555c0.1474,0.3871 -0.0468,0.8204 -0.4339,0.9679c-0.3871,0.1474 -0.8204,-0.0468 -0.9679,-0.4339z" fill="#002B51"/>
</svg>

<svg width="24" height="24" viewBox="0 0 24 24" fill="none" xmlns="http://www.w3.org/2000/svg">
<path fill-rule="evenodd" clip-rule="evenodd" d="M10.75 4.75C10.75 4.33579 11.0858 4 11.5 4H14C14.3112 4 14.5901 4.19219 14.7009 4.483L17.0308 10.599C17.3437 10.5341 17.6679 10.5 18 10.5C20.6234 10.5 22.75 12.6266 22.75 15.25C22.75 17.8734 20.6234 20 18 20C15.3766 20 13.25 17.8734 13.25 15.25C13.25 13.4901 14.2071 11.9538 15.6291 11.1331L15.0254 9.54833L10.8705 15.6711L10.7035 15.9173C10.3791 18.2247 8.39687 20 6 20C3.37665 20 1.25 17.8734 1.25 15.25C1.25 12.6266 3.37665 10.5 6 10.5C8.04592 10.5 9.78973 11.7935 10.4583 13.6073L11.2989 12.3685L6.70054 8H5.5C5.08579 8 4.75 7.66421 4.75 7.25C4.75 6.83579 5.08579 6.5 5.5 6.5H7H9C9.41421 6.5 9.75 6.83579 9.75 7.25C9.75 7.66421 9.41421 8 9 8H8.87839L12.1526 11.1105L14.3736 7.83743L13.4831 5.5H11.5C11.0858 5.5 10.75 5.16421 10.75 4.75ZM9.16303 14.5C8.82445 13.0666 7.53679 12 6 12C4.20507 12 2.75 13.4551 2.75 15.25C2.75 17.0449 4.20507 18.5 6 18.5C7.53679 18.5 8.82445 17.4334 9.16303 16H6C5.58579 16 5.25 15.6642 5.25 15.25C5.25 14.8358 5.58579 14.5 6 14.5H9.16303ZM17.2991 15.517L16.1733 12.5616C15.3142 13.1465 14.75 14.1323 14.75 15.25C14.75 17.0449 16.2051 18.5 18 18.5C19.7949 18.5 21.25 17.0449 21.25 15.25C21.25 13.4551 19.7949 12 18 12C17.8559 12 17.7141 12.0094 17.575 12.0275L18.7009 14.983C18.8483 15.3701 18.6541 15.8034 18.267 15.9509C17.8799 16.0983 17.4466 15.9041 17.2991 15.517Z" fill="#002B51"/>
</svg>
